X:1
T:Title
%%score { 1 | 2 }
L:1/8
Q:1/4=92
M:2/4
K:G
V:1 treble nm="Grand Piano"
V:2 treble 
V:1
 [GB]>[Ac] [Bd]B | GA BG | E[DF] [EG][^DA] | [DB][DG] [DFA]2 | [DGB]>[DAc] [DBd][DGB] | %5
w: M.~L.~McPhail * * *|||||
 [CGc][Gd] [Ge][Ec] | [CE][DF] [EG][^DA] | [DB]2 [CDA]2 | [B,DG]4 | [DFA]>[DFA] [DFA][A,EG] | %10
w: |||||
 [A,DF][A,EG] [DFA][A,DF] | [^CE][DF] [EG][CE] | [^CA][EG] [DF]2 | [FA]>[FA] [FA][EG] | %14
w: ||||
 [DF][EG] [FA][DF] | [Fd][Fd] [Fd][G^c] | [GB][G^c] [Fd]2 | [GB]>[Ac] [Bd]B | GA BG | %19
w: |||||
 E[DF] [EG][^DA] | [DB][DG] [DFA]2 | [DGB]>[DAc] [DBd][DGB] | [CGc][Gd] [Ge][Ec] | %23
w: ||||
 [CE][DF] [EG][^DA] | [DB]2 [CDA]2 | [B,DG]4 |] %26
w: |||
V:2
 [G,D]>[G,D] [G,D][G,DG] | [G,B,][G,CG] [G,DG][K:bass][G,B,D] | [C,G,C][C,G,] [C,G,][C,G,] | %3
 [G,,G,]B,, D,2 | G,>G, G,=F, | E,[D,B,] [C,C][C,G,] | [C,G,][C,G,] [C,G,][C,G,] | [D,G,]2 D,2 | %8
 G,,4 | D,>D, D,D, | D,D, D,D, | [A,,A,][A,,A,] [A,,A,][A,,A,] | [A,,A,][A,,A,] [D,A,]2 | %13
 [D,D]>[D,D] [D,D][D,A,] | [D,A,][D,A,] [D,D][D,A,] | [A,,A,][A,,A,] [A,,A,][A,,A,] | %16
 [A,,A,][A,,A,] [D,A,]2 | [G,D]>[G,D] [G,D][G,DG] | [G,B,][G,CG] [G,DG][K:bass][G,B,D] | %19
 [C,G,C][C,G,] [C,G,][C,G,] | [G,,G,]B,, D,2 | G,>G, G,=F, | E,[D,B,] [C,C][C,G,] | %23
 [C,G,][C,G,] [C,G,][C,G,] | [D,G,]2 D,2 | G,,4 |] %26

